icons/tag-plus-outline.svg

<svg xmlns="http://www.w3.org/2000/svg" width="24" height="24" viewBox="0 0 24 24">
  <path d="M13,2 C13.2652165,2 13.5195704,2.10535684 13.7071068,2.29289322 L13.7071068,2.29289322 L21.2928932,9.87867966 C22.4644661,11.0502525 22.4644661,12.9497475 21.2928932,14.1213203 L21.2928932,14.1213203 L14.1213203,21.2928932 C12.9497475,22.4644661 11.0502525,22.4644661 9.87867966,21.2928932 L9.87867966,21.2928932 L2.29289322,13.7071068 C2.10535684,13.5195704 2,13.2652165 2,13 L2,13 L2,5 C2,3.34314575 3.34314575,2 5,2 L5,2 Z M12.585,4 L5,4 C4.44771525,4 4,4.44771525 4,5 L4,5 L4,12.585 L11.2928932,19.8786797 C11.6533772,20.2391636 12.2206082,20.2668932 12.6128994,19.9618683 L12.6128994,19.9618683 L12.7071068,19.8786797 L19.8786797,12.7071068 C20.2692039,12.3165825 20.2692039,11.6834175 19.8786797,11.2928932 L19.8786797,11.2928932 L12.585,4 Z M12,8 C12.5128358,8 12.9355072,8.38604019 12.9932723,8.88337887 L13,9 L12.999,11 L15,11 C15.5522847,11 16,11.4477153 16,12 C16,12.5128358 15.6139598,12.9355072 15.1166211,12.9932723 L15,13 L12.999,13 L13,15 C13,15.5522847 12.5522847,16 12,16 C11.4871642,16 11.0644928,15.6139598 11.0067277,15.1166211 L11,15 L10.999,13 L9,13 C8.44771525,13 8,12.5522847 8,12 C8,11.4871642 8.38604019,11.0644928 8.88337887,11.0067277 L9,11 L10.999,11 L11,9 C11,8.44771525 11.4477153,8 12,8 Z"/>
</svg>

<svg xmlns="http://www.w3.org/2000/svg" viewBox="0 0 24 24">
  <path d="M13 2a1 1 0 0 1 .7.3l7.6 7.58a3 3 0 0 1 0 4.24l-7.18 7.17a3 3 0 0 1-4.24 0l-7.59-7.58A1 1 0 0 1 2 13V5a3 3 0 0 1 3-3zm-.41 2H5a1 1 0 0 0-1 1v7.59l7.3 7.29a1 1 0 0 0 1.31.08l.1-.08 7.17-7.17a1 1 0 0 0 0-1.42L12.58 4zM12 8a1 1 0 0 1 1 .88V11h2a1 1 0 0 1 .12 2H13v2a1 1 0 0 1-2 .12V13H9a1 1 0 0 1-.12-2H11V9a1 1 0 0 1 1-1z"/>
</svg>
